Sources/FrostedUI/Resources/Icons.xcassets/couponExpired32.imageset/coupon-expired-32.svg

<svg width="32" height="32" viewBox="0 0 32 32" fill="none" xmlns="http://www.w3.org/2000/svg" data-fui-icon="true">
  <path
    d="M10.4941 1C11.2776 1 11.8857 1.51075 12.1738 2.10352C12.8635 3.52334 14.3186 4.5 16 4.5C17.6814 4.5 19.1365 3.52334 19.8262 2.10352C20.1143 1.51075 20.7224 1 21.5059 1H25.75C27.2688 1 28.5 2.23122 28.5 3.75V28.25C28.5 29.7688 27.2688 31 25.75 31H21.5059C20.7224 31 20.1143 30.4892 19.8262 29.8965C19.1365 28.4767 17.6814 27.5 16 27.5C14.3186 27.5 12.8635 28.4767 12.1738 29.8965C11.8857 30.4892 11.2776 31 10.4941 31H6.25C4.73122 31 3.5 29.7688 3.5 28.25V3.75C3.5 2.23122 4.73122 1 6.25 1H10.4941ZM6.25 2.5C5.55964 2.5 5 3.05964 5 3.75V28.25C5 28.9404 5.55964 29.5 6.25 29.5H10.4941C10.5842 29.5 10.7315 29.4332 10.8252 29.2402C11.7563 27.3237 13.723 26 16 26C18.277 26 20.2437 27.3237 21.1748 29.2402C21.2685 29.4332 21.4158 29.5 21.5059 29.5H25.75C26.4404 29.5 27 28.9404 27 28.25V3.75C27 3.05964 26.4404 2.5 25.75 2.5H21.5059C21.4158 2.5 21.2685 2.56681 21.1748 2.75977C20.2437 4.67634 18.277 6 16 6C13.723 6 11.7563 4.67634 10.8252 2.75977C10.7315 2.56681 10.5842 2.5 10.4941 2.5H6.25ZM20.7197 10.2197C21.0126 9.92683 21.4874 9.92683 21.7803 10.2197C22.0732 10.5126 22.0732 10.9874 21.7803 11.2803L17.0605 16L21.7803 20.7197C22.0732 21.0126 22.0732 21.4874 21.7803 21.7803C21.4874 22.0732 21.0126 22.0732 20.7197 21.7803L16 17.0605L11.2803 21.7803C10.9874 22.0732 10.5126 22.0732 10.2197 21.7803C9.92683 21.4874 9.92683 21.0126 10.2197 20.7197L14.9395 16L10.2197 11.2803C9.92683 10.9874 9.92683 10.5126 10.2197 10.2197C10.5126 9.92683 10.9874 9.92683 11.2803 10.2197L16 14.9395L20.7197 10.2197Z"
    fill="currentColor"
  />
</svg>

<svg xmlns="http://www.w3.org/2000/svg" width="32" height="32" fill="none" data-fui-icon="true" viewBox="0 0 32 32"><path fill="currentColor" d="M10.494 1c.784 0 1.392.51 1.68 1.104a4.252 4.252 0 0 0 7.652 0C20.114 1.51 20.722 1 21.506 1h4.244a2.75 2.75 0 0 1 2.75 2.75v24.5A2.75 2.75 0 0 1 25.75 31h-4.244c-.784 0-1.392-.51-1.68-1.104a4.252 4.252 0 0 0-7.652 0c-.288.593-.896 1.104-1.68 1.104H6.25a2.75 2.75 0 0 1-2.75-2.75V3.75A2.75 2.75 0 0 1 6.25 1zM6.25 2.5C5.56 2.5 5 3.06 5 3.75v24.5c0 .69.56 1.25 1.25 1.25h4.244c.09 0 .238-.067.331-.26a5.75 5.75 0 0 1 10.35 0c.093.193.24.26.33.26h4.245c.69 0 1.25-.56 1.25-1.25V3.75c0-.69-.56-1.25-1.25-1.25h-4.244c-.09 0-.238.067-.331.26a5.75 5.75 0 0 1-10.35 0c-.093-.193-.24-.26-.33-.26zm14.47 7.72a.75.75 0 0 1 1.06 1.06L17.06 16l4.72 4.72a.75.75 0 1 1-1.06 1.06L16 17.06l-4.72 4.72a.75.75 0 1 1-1.06-1.06L14.94 16l-4.72-4.72a.75.75 0 0 1 1.06-1.06L16 14.94z"/></svg>
